Origami/64x64/apps/livewallpaper.svg

<svg width="64" height="64" version="1" xmlns="http://www.w3.org/2000/svg">
 <rect transform="matrix(0,-1,-1,0,0,0)" x="-56" y="-48" width="42" height="32" rx="2.5" ry="2.5" style="opacity:.2"/>
 <rect transform="matrix(0,-1,-1,0,0,0)" x="-55" y="-48" width="42" height="32" rx="2.5" ry="2.5" style="fill:#8e8e8e"/>
 <rect transform="matrix(0,-1,-1,0,0,0)" x="-50" y="-58" width="40" height="52" rx="2.5" ry="2.5" style="opacity:.2"/>
 <rect transform="matrix(0,-1,-1,0,0,0)" x="-49" y="-58" width="40" height="52" rx="2.5" ry="2.5" style="fill:#4f4f4f"/>
 <path d="m8.5 9c-1.385 0-2.5 1.115-2.5 2.5v1c0-1.385 1.115-2.5 2.5-2.5h47c1.385 0 2.5 1.115 2.5 2.5v-1c0-1.385-1.115-2.5-2.5-2.5z" style="fill:#ffffff;opacity:.1"/>
 <rect x="10" y="45" width="44" height="1" style="fill:#ffffff;opacity:.1"/>
 <rect transform="matrix(0,-1,-1,0,0,0)" x="-45" y="-54" width="32" height="44" rx="0" ry="0" style="fill:#1d83af"/>
 <path d="m43.0002 16a7 7 0 0 0 -7 7 7 7 0 0 0 7 7 7 7 0 0 0 7 -7 7 7 0 0 0 -7 -7zm-14 4a3 3 0 0 0 -3 3 3 3 0 0 0 3 3 3 3 0 0 0 3 -3 3 3 0 0 0 -3 -3zm-10 6a5 5 0 0 0 -5 5 5 5 0 0 0 5 5 5 5 0 0 0 5 -5 5 5 0 0 0 -5 -5zm27.941406 8.941406a2 2 0 0 0 -2 2 2 2 0 0 0 2 2 2 2 0 0 0 2 -2 2 2 0 0 0 -2 -2zm-10.941406 1.058594a4 4 0 0 0 -4 4 4 4 0 0 0 4 4 4 4 0 0 0 4 -4 4 4 0 0 0 -4 -4z" style="opacity:.2"/>
 <circle cx="43" cy="22" r="7" style="fill:#f0f9fd"/>
 <circle cx="19" cy="30" r="5" style="fill:#c4e7f5"/>
 <circle cx="36" cy="39" r="4" style="fill:#a6daf0"/>
 <circle cx="29" cy="22" r="3" style="fill:#c4e7f5"/>
 <circle cx="46.941" cy="35.941" r="2" style="fill:#d3edf8"/>
</svg>

<svg xmlns="http://www.w3.org/2000/svg" width="64" height="64" version="1">
 <rect style="opacity:0.2" width="42" height="32" x="-56" y="-48" rx="2.5" ry="2.5" transform="matrix(0,-1,-1,0,0,0)"/>
 <rect style="fill:#8e8e8e" width="42" height="32" x="-55" y="-48" rx="2.5" ry="2.5" transform="matrix(0,-1,-1,0,0,0)"/>
 <rect style="opacity:0.2" width="40" height="52" x="-50" y="-58" rx="2.5" ry="2.5" transform="matrix(0,-1,-1,0,0,0)"/>
 <rect style="fill:#4f4f4f" width="40" height="52" x="-49" y="-58" rx="2.5" ry="2.5" transform="matrix(0,-1,-1,0,0,0)"/>
 <path style="opacity:0.1;fill:#ffffff" d="M 8.5,9 C 7.115,9 6,10.115 6,11.5 V 12.5 C 6,11.115 7.115,10 8.5,10 H 55.5 C 56.885,10 58,11.115 58,12.5 V 11.5 C 58,10.115 56.885,9 55.5,9 Z"/>
 <rect style="opacity:0.1;fill:#ffffff" width="44" height="1" x="10" y="45"/>
 <rect style="fill:#1d83af" width="32" height="44" x="-45" y="-54" rx="0" ry="0" transform="matrix(0,-1,-1,0,0,0)"/>
 <path style="opacity:0.2" d="m 43.0002,16 a 7,7 0 0 0 -7,7 7,7 0 0 0 7,7 7,7 0 0 0 7,-7 7,7 0 0 0 -7,-7 z m -14,4 a 3,3 0 0 0 -3,3 3,3 0 0 0 3,3 3,3 0 0 0 3,-3 3,3 0 0 0 -3,-3 z m -10,6 a 5,5 0 0 0 -5,5 5,5 0 0 0 5,5 5,5 0 0 0 5,-5 5,5 0 0 0 -5,-5 z m 27.941406,8.941406 a 2,2 0 0 0 -2,2 2,2 0 0 0 2,2 2,2 0 0 0 2,-2 2,2 0 0 0 -2,-2 z M 36.0002,36 a 4,4 0 0 0 -4,4 4,4 0 0 0 4,4 4,4 0 0 0 4,-4 4,4 0 0 0 -4,-4 z"/>
 <circle style="fill:#f0f9fd" cx="43" cy="22" r="7"/>
 <circle style="fill:#c4e7f5" cx="19" cy="30" r="5"/>
 <circle style="fill:#a6daf0" cx="36" cy="39" r="4"/>
 <circle style="fill:#c4e7f5" cx="29" cy="22" r="3"/>
 <circle style="fill:#d3edf8" cx="46.941" cy="35.941" r="2"/>
</svg>
